X: 29983
T: Och Is Duine Truagh Mi
R: reel
M: 4/4
K: Amixolydian
c|A3 B c3 B|cBce f2 e2|A3 B c3 e|f2 ec B3c|
ABBA c3 B|cBce f2 e2|A^GAB cBce|faec B3c||
e2 fe A3 c|e2 fe cBBA|e2 fe A3 c|f2 ec B3 c|
e2 fe A3 c|e2 fe cABc|e2 fe a2 ec|faec B3c||

